X: 37857
T: Soren's
R: waltz
M: 3/4
K: Bminor
|:EF GB de|cB AB cA|BG EF GE|AF DA GF|
EF GB de|cB AB cA|BG EA FG|E6:|
|:dc Bc de|cB Ae dc|BF Bc de|f3 e dc|BF Bc de|
cB Ae dc|1 fd Be cd|B6:|2 fd Be cA|BG EA FG||

